X: 0882
M: 2/4
L: 1/16
K: C
(c2 |\
|: z2 |\
d'f' "_>"f'4 b2 | c'<e'a2 a<c'^f2 | a<c' "_>"c'4 ^f2 | g<bd2 d<bB2 |\
d2 "_>"b4 g2 | e<gc2 c<eA2 | ^F<e "_>"e4 ^F2 | G2G2G2 "^Da Capo":|
K: F
!p!Acfg a2f2 | d'c'fg a2f2 | cega b2g2 | e'2d'2 Td'2c'2 |\
!f!Acfg a2f2 | d'c'fg a2f2 | cega b2g2 | e'2d'2 Td'2c'2 |\

